!!!OTL: Xinsijun dongjin guo wozhuang
!!!ARE: Asia, China,ÿJiangsu Dongtai
!! III, 465, 2)
!!!SCT: C2029
!!!YEM: Copyright 1995, estate of Helmut Schaffrath.
**kern
*ICvox
*Ivox
*M2/4
*k[f#c#]
*D:
{8ee
16ff#
16ee
8dd
8b
=1
8ee
16ff#
16ee
8dd
8b
=2
8a
8f#
8dd
8a
=3
16b
16cc#
4.b}
=4
{8.a
16dd
8b
8a
=5
8.f#
16a
16f#
16e
16d
16e
=6
2f#}
=7
{8e
16e
16f#
8.a
16b
=8
16f#
16a
16f#
16e
4d
=9
8.d
16e
8f#
8a
=10
2e}
=11
{8ee
16ee
16ff#
8b
8b
=12
8dd
8dd
16dd
16dd
16dd
16b
=13
8dd
16dd
16b
8a
8b
=14
2dd}
=15
{8a
8f#
8a
8b
=16
4dd
4dd}
=17
{8a
16dd
16dd
8b
8a
=18
8.f#
16a
16f#
16e
16d
16e
=19
2f#}
==
!!!AGN: Xiaodiao, Shibuqian diao
!!!AMT: simple duple
!!!AIN: vox
!!!EED: Helmut Schaffrath
!!!EEV: 1.0
*-
